X:1
T:Title
%%score { ( 1 3 ) | 2 }
L:1/8
Q:1/4=100
M:4/4
K:Bb
V:1 treble nm="Grand Piano"
V:3 treble 
V:2 bass 
V:1
 [DF]2 [DF]2 [EG][DF][EG][EA] | [DB]4 [DF]2 z2 | B2 B2 [=EB][EA][EB][Ed] | [Fc]6 z2 | %4
w: J.~H.~Hall * * * * *||||
 [Fd]2 [DF]2 [EG][DF][EG][EA] | [DB]4 [DF]2 z2 | [EG][GB][FA]G F2 A2 | [DB]6 z2 | %8
w: ||||
 [Fd]2 [DF]2 [EG][DF][FB][Fc] | d4 B2 z2 | B2 B2 [=EB][EA][EB][Ed] | c6 z2 | %12
w: ||||
 [Fd]2 [DF]2 [EG][DF][FB][Fc] | d4 B2 z2 | G[GB][FA]G F2 A2 | B6 z2 |] %16
w: ||||
V:2
 [B,,B,]2 [B,,B,]2 [B,,B,][B,,B,][B,,A,][B,,G,] | [B,,F,]4 [B,,B,]2 z2 | %2
 [G,D]2 [G,D]2 [C,G,][C,G,][C,G,][C,B,] | [F,A,]6 z2 | %4
 [B,,B,]2 [B,,B,]2 [B,,B,][B,,B,][B,,A,][B,,G,] | [B,,F,]4 [B,,B,]2 z2 | %6
 [E,B,][E,B,][E,B,][E,B,E] [F,B,D]2 [F,C]2 | [B,,F,]6 z2 | %8
 [B,,B,]2 [B,,B,]2 [B,,B,][B,,B,][D,B,][F,A,] | [B,,B,]2 [B,,B,][B,,B,] [B,,F,][B,,F,] z2 | %10
 [G,D]2 [G,D]2 [C,G,][C,G,][C,G,][C,B,] | [F,A,F]2 [G,B,]2 [A,C]2 z2 | %12
 [B,,B,]2 [B,,B,]2 [B,,B,][B,,B,][D,B,][F,A,] | [B,,B,][B,,B,][B,,B,][B,,B,] [B,,F,][B,,F,] z2 | %14
 [E,B,E][E,B,][E,B,][E,B,E] [F,B,D]2 [F,C]2 | [B,,F,][B,,F,][B,,G,][B,,G,] [B,,F,]2 z2 |] %16
V:3
 x8 | x8 | x8 | x8 | x8 | x8 | x8 | x8 | x8 | FFFF DD z2 | x8 | z2 =E2 F2 z2 | x8 | FFFF DD z2 | %14
 x8 | DDEE D2 z2 |] %16

